web/packages/design/src/ResourceIcon/assets/calm.svg

<svg width="72" height="72" viewBox="0 0 72 72" fill="none" xmlns="http://www.w3.org/2000/svg">
<g clip-path="url(#clip0_15936_6870)">
<path fill-rule="evenodd" clip-rule="evenodd" d="M55.9688 0.000488281H16.0312C7.1775 0.000488281 0 7.17799 0 16.0317V55.9692C0 64.823 7.1775 72.0005 16.0312 72.0005H55.9688C64.8225 72.0005 72 64.823 72 55.9692V16.0317C72 7.17799 64.8225 0.000488281 55.9688 0.000488281Z" fill="url(#paint0_linear_15936_6870)"/>
<path fill-rule="evenodd" clip-rule="evenodd" d="M8.30647 27.4336C7.32213 28.6672 6.49404 30.0177 5.84103 31.4544C5.17616 32.922 4.67497 34.4975 4.41003 36.1344C3.13766 45.1147 8.59503 46.5435 9.52541 46.7184C14.3089 47.2764 17.8318 44.6692 19.4968 43.07C20.097 46.0676 23.0895 46.1036 24.4018 44.7502C24.7365 44.4048 25.0048 43.9807 25.213 43.5386C25.9915 46.3719 28.4839 45.4072 28.777 45.2812C30.1663 44.7603 31.6193 42.8225 32.647 41.1975C33.2995 43.4261 34.5595 45.8139 36.9799 45.558C38.4385 45.5225 42.0958 41.6295 42.4339 42.1374C42.7714 42.5576 42.8614 43.3293 42.8389 44.4808C42.8164 45.6322 43.7299 45.6901 44.1439 45.576C44.7823 45.3988 45.1845 44.1376 45.8533 43.0413C46.3776 42.1818 46.7685 41.6953 47.2888 41.1226C47.551 40.8403 48.7384 39.6095 49.576 40.0275C50.4135 40.4448 50.499 41.3038 50.557 41.7785C50.6211 42.255 50.6217 42.7601 50.6419 43.3125C50.6177 45.2193 51.5121 45.4888 51.7647 45.5591C53.8341 46.1188 53.9623 42.2218 55.4805 40.7756C55.6228 40.6282 56.9492 39.2568 57.7069 41.4945C58.801 45.5388 62.1681 47.0508 66.7007 44.802C67.5417 44.3846 67.7065 44.2215 68.1655 43.8795C68.2204 43.8385 68.265 43.7854 68.296 43.7243C68.3269 43.6632 68.3433 43.5958 68.3438 43.5273V43.5217C68.3436 43.445 68.3234 43.3696 68.2852 43.3031C68.247 43.2366 68.1921 43.1812 68.1259 43.1425C68.0596 43.1037 67.9845 43.0829 67.9077 43.0821C67.831 43.0814 67.7554 43.1007 67.6885 43.1381L67.6862 43.1392C67.2222 43.3968 65.6787 43.9132 65.191 44.0887C63.3612 44.388 61.1213 44.3205 60.0177 41.6441C59.6852 40.8375 59.3562 40.1113 58.7875 39.348C58.1445 38.4851 56.0397 37.458 54.0737 39.3103C53.563 39.7788 53.1861 40.2975 52.8587 40.8144C52.726 41.0259 52.6028 41.2385 52.4863 41.4511L52.4638 41.3668C52.29 40.7671 51.7343 38.5515 49.4235 38.1915C49.1063 38.1656 47.8204 38.0205 46.0418 39.9746C45.4202 40.653 44.9027 41.3741 44.4207 42.1036L44.419 42.1065C44.334 41.7099 44.2311 41.3488 44.1293 41.1907C42.6178 38.8614 40.3285 40.721 39.3424 41.4151C37.1335 42.9705 36.1092 45.0618 34.7625 40.3115C34.5876 39.6387 34.4481 38.9571 34.3446 38.2696C35.6867 35.9859 38.4188 29.0373 36.8505 24.3787C36.7487 24.0845 36.202 22.581 34.8897 22.6777C34.7012 22.6963 33.2061 22.5388 32.3888 26.7238C31.6238 30.7693 31.7925 35.9836 31.9782 37.7122C31.9995 37.8916 32.0383 38.2455 32.1081 38.7078C30.8143 40.9252 29.1156 43.4463 28.0806 43.5633C26.7362 43.7163 27.1108 42.4749 26.2896 39.717C26.1484 39.3592 25.695 37.6543 23.6543 37.7392C22.6564 37.7803 21.5995 38.0407 20.1567 39.6213C17.8144 42.1875 12.4718 46.0473 8.65072 43.6218C8.23559 43.299 6.17122 41.6081 6.93172 36.5433C7.15672 35.1545 7.58309 33.7831 8.15741 32.5029C8.71809 31.2461 9.42214 30.0583 10.2555 28.9631C14.1818 24.134 17.5815 23.5698 18.2526 23.5991C19.9738 23.5991 20.4205 25.83 20.4188 25.8097C20.4253 25.9047 20.4509 25.9974 20.4939 26.0824C20.5369 26.1673 20.5966 26.2427 20.6692 26.3042C20.7419 26.3658 20.8262 26.412 20.9171 26.4404C21.008 26.4688 21.1037 26.4786 21.1984 26.4694C21.2932 26.4601 21.3851 26.4319 21.4688 26.3865C21.5525 26.3411 21.6263 26.2794 21.6857 26.205C21.7451 26.1306 21.789 26.045 21.8148 25.9534C21.8405 25.8617 21.8477 25.7658 21.8357 25.6713C21.8323 25.6516 21.8391 24.9423 21.5443 24.2685C21.2749 23.391 20.4992 22.5753 20.0475 22.2744C19.4907 21.8863 18.7532 21.6787 17.8842 21.6787C15.3867 21.6787 11.8035 23.3898 8.30647 27.4336ZM34.0273 34.4818C34.0088 26.6169 35.0067 24.8321 35.0803 24.9688C35.4612 25.6764 36.2813 30.1044 34.0431 34.9447L34.0273 34.4818ZM21.0792 42.2088C21.1084 40.1276 23.6959 38.8198 24.3906 40.2682C24.4474 40.3863 24.4862 40.5202 24.5228 40.6518C24.4024 41.0343 24.354 41.652 23.9473 42.4895C23.5182 43.3743 22.8437 43.8136 22.257 43.8136C21.6073 43.8136 21.064 43.2759 21.0792 42.2088Z" fill="white"/>
</g>
<defs>
<linearGradient id="paint0_linear_15936_6870" x1="0" y1="0.000488281" x2="0" y2="72.0005" gradientUnits="userSpaceOnUse">
<stop stop-color="#60B4E7"/>
<stop offset="1" stop-color="#6461E0"/>
</linearGradient>
<clipPath id="clip0_15936_6870">
<rect width="72" height="72" fill="white" transform="translate(0 0.000488281)"/>
</clipPath>
</defs>
</svg>

<svg xmlns="http://www.w3.org/2000/svg" width="72" height="72" fill="none" viewBox="0 0 72 72"><g fill-rule="evenodd" clip-path="url(#a)" clip-rule="evenodd"><path fill="url(#b)" d="M55.969 0H16.03C7.178 0 0 7.178 0 16.032v39.937c0 8.854 7.178 16.032 16.031 16.032H55.97C64.823 72 72 64.823 72 55.969V16.032C72 7.178 64.823 0 55.969 0"/><path fill="#fff" d="M8.306 27.434a19.2 19.2 0 0 0-2.465 4.02 18.6 18.6 0 0 0-1.431 4.68c-1.272 8.98 4.185 10.41 5.115 10.584 4.784.558 8.307-2.049 9.972-3.648.6 2.998 3.593 3.034 4.905 1.68a4.5 4.5 0 0 0 .811-1.211c.778 2.833 3.27 1.868 3.564 1.742 1.39-.52 2.842-2.459 3.87-4.084.653 2.23 1.913 4.617 4.333 4.361 1.459-.035 5.116-3.928 5.454-3.42.337.42.427 1.191.405 2.343-.023 1.151.89 1.21 1.305 1.095.638-.177 1.04-1.438 1.71-2.535.524-.86.915-1.346 1.435-1.918.262-.283 1.45-1.514 2.287-1.095.837.417.923 1.276.981 1.75.064.477.065.982.085 1.535-.024 1.906.87 2.176 1.123 2.246 2.07.56 2.197-3.337 3.715-4.783.143-.148 1.47-1.52 2.227.718 1.094 4.045 4.461 5.557 8.994 3.308.84-.417 1.006-.58 1.465-.922a.45.45 0 0 0 .178-.353v-.005a.44.44 0 0 0-.655-.384l-.003.001c-.464.258-2.007.774-2.495.95-1.83.299-4.07.232-5.173-2.445-.333-.806-.662-1.533-1.23-2.296-.643-.863-2.748-1.89-4.714-.038-.511.469-.888.987-1.215 1.504q-.199.319-.373.637l-.022-.084c-.174-.6-.73-2.815-3.04-3.175-.318-.026-1.604-.172-3.382 1.783-.622.678-1.14 1.4-1.621 2.129l-.002.002c-.085-.396-.188-.757-.29-.915-1.511-2.33-3.8-.47-4.787.224-2.209 1.556-3.233 3.647-4.58-1.103a20 20 0 0 1-.417-2.042c1.342-2.284 4.074-9.233 2.505-13.891-.101-.295-.648-1.798-1.96-1.701-.189.018-1.684-.14-2.501 4.046-.765 4.045-.597 9.26-.41 10.988.02.18.06.533.13.996-1.295 2.217-2.993 4.738-4.028 4.855-1.345.153-.97-1.088-1.791-3.846-.142-.358-.595-2.063-2.636-1.978-.998.041-2.055.302-3.497 1.882-2.343 2.566-7.685 6.426-11.506 4-.415-.322-2.48-2.013-1.72-7.078.226-1.389.652-2.76 1.226-4.04a18 18 0 0 1 2.098-3.54c3.927-4.829 7.326-5.393 7.998-5.364 1.72 0 2.168 2.231 2.166 2.21a.712.712 0 1 0 1.417-.138c-.004-.02.003-.729-.292-1.402-.27-.878-1.045-1.694-1.497-1.995-.556-.388-1.294-.595-2.163-.595-2.497 0-6.08 1.71-9.578 5.755m25.721 7.048c-.018-7.865.98-9.65 1.053-9.513.381.707 1.201 5.135-1.037 9.976zM21.08 42.209c.03-2.081 2.617-3.39 3.312-1.94.056.117.095.251.132.383-.12.382-.169 1-.576 1.837-.429.885-1.103 1.325-1.69 1.325-.65 0-1.193-.538-1.178-1.605"/></g><defs><linearGradient id="b" x1="0" x2="0" y1="0" y2="72.001" gradientUnits="userSpaceOnUse"><stop stop-color="#60b4e7"/><stop offset="1" stop-color="#6461e0"/></linearGradient><clipPath id="a"><path fill="#fff" d="M0 0h72v72H0z"/></clipPath></defs></svg>
